X:21
T:Butcher's March
Z: id:dc-jig-17
M:6/8
L:1/8
K:G Major
B|ded BAB|d2B A2B|ded BAB|d2B G2B|!
ded BAB|d2B A2g|faf gfe|d2B G2:|!
B|eAA fAA|eAA ABd|eAA efg|dBG GBd|!
eAA fAA|eAA efg|faf gfe|d2B G2:|!

